src/images/advantage-icon-1.svg

<svg fill="none" height="40" viewBox="0 0 48 40" width="48" xmlns="http://www.w3.org/2000/svg" xmlns:xlink="http://www.w3.org/1999/xlink"><filter id="a" color-interpolation-filters="sRGB" filterUnits="userSpaceOnUse" height="40" width="52" x="-2" y="0"><feFlood flood-opacity="0" result="BackgroundImageFix"/><feColorMatrix in="SourceAlpha" result="hardAlpha" type="matrix" values="0 0 0 0 0 0 0 0 0 0 0 0 0 0 0 0 0 0 127 0"/><feOffset dy="4"/><feGaussianBlur stdDeviation="2"/><feComposite in2="hardAlpha" operator="out"/><feColorMatrix type="matrix" values="0 0 0 0 0 0 0 0 0 0 0 0 0 0 0 0 0 0 0.25 0"/><feBlend in2="BackgroundImageFix" mode="normal" result="effect1_dropShadow_1_269"/><feBlend in="SourceGraphic" in2="effect1_dropShadow_1_269" mode="normal" result="shape"/></filter><g filter="url(#a)"><path d="m30 32c-4.4667 0-8.25-1.55-11.35-4.65s-4.65-6.8833-4.65-11.35 1.55-8.25 4.65-11.35 6.8833-4.65 11.35-4.65 8.25 1.55 11.35 4.65 4.65 6.8833 4.65 11.35-1.55 8.25-4.65 11.35-6.8833 4.65-11.35 4.65zm-.012-3c3.608 0 6.6787-1.2627 9.212-3.788 2.5333-2.5257 3.8-5.5923 3.8-9.2 0-3.608-1.2627-6.67867-3.788-9.212-2.5257-2.53333-5.5923-3.8-9.2-3.8-3.608 0-6.6787 1.26267-9.212 3.788-2.5333 2.52567-3.8 5.5923-3.8 9.2 0 3.608 1.2627 6.6787 3.788 9.212 2.5257 2.5333 5.5923 3.8 9.2 3.8zm5.112-5.85 2.1-2.1-5.7-5.7v-7.35h-3v8.6zm-31.1-13.65v-3h8v3zm-2 8v-3h10v3zm2 8v-3h8v3z" fill="#fcc241"/></g></svg>

<svg width="48" height="40" viewBox="0 0 48 40" fill="none" xmlns="http://www.w3.org/2000/svg">
<g filter="url(#filter0_d_1_269)">
<path d="M30 32C25.5333 32 21.75 30.45 18.65 27.35C15.55 24.25 14 20.4667 14 16C14 11.5333 15.55 7.75 18.65 4.65C21.75 1.55 25.5333 0 30 0C34.4667 0 38.25 1.55 41.35 4.65C44.45 7.75 46 11.5333 46 16C46 20.4667 44.45 24.25 41.35 27.35C38.25 30.45 34.4667 32 30 32ZM29.988 29C33.596 29 36.6667 27.7373 39.2 25.212C41.7333 22.6863 43 19.6197 43 16.012C43 12.404 41.7373 9.33333 39.212 6.8C36.6863 4.26667 33.6197 3 30.012 3C26.404 3 23.3333 4.26267 20.8 6.788C18.2667 9.31367 17 12.3803 17 15.988C17 19.596 18.2627 22.6667 20.788 25.2C23.3137 27.7333 26.3803 29 29.988 29ZM35.1 23.15L37.2 21.05L31.5 15.35V8H28.5V16.6L35.1 23.15ZM4 9.5V6.5H12V9.5H4ZM2 17.5V14.5H12V17.5H2ZM4 25.5V22.5H12V25.5H4Z" fill="#FCC241"/>
</g>
<defs>
<filter id="filter0_d_1_269" x="-2" y="0" width="52" height="40" filterUnits="userSpaceOnUse" color-interpolation-filters="sRGB">
<feFlood flood-opacity="0" result="BackgroundImageFix"/>
<feColorMatrix in="SourceAlpha" type="matrix" values="0 0 0 0 0 0 0 0 0 0 0 0 0 0 0 0 0 0 127 0" result="hardAlpha"/>
<feOffset dy="4"/>
<feGaussianBlur stdDeviation="2"/>
<feComposite in2="hardAlpha" operator="out"/>
<feColorMatrix type="matrix" values="0 0 0 0 0 0 0 0 0 0 0 0 0 0 0 0 0 0 0.25 0"/>
<feBlend mode="normal" in2="BackgroundImageFix" result="effect1_dropShadow_1_269"/>
<feBlend mode="normal" in="SourceGraphic" in2="effect1_dropShadow_1_269" result="shape"/>
</filter>
</defs>
</svg>
